Obsidian/actions/22s/run-build-configure.svg

<svg height="22" viewBox="0 0 22 22" width="22" xmlns="http://www.w3.org/2000/svg"><path d="m7 1v1.0859375c-.89056.15268-1.7351031.5045369-2.4707031 1.0292969l-.7714844-.7714844-1.4140625 1.4140625.7695312.7695313c-.5229499.73666-.8728275 1.5818562-1.0234374 2.4726562h-1.0898438v2h1.0859375c.15268.89056.5045369 1.735103 1.0292969 2.470703l-.7714844.771485 1.4140625 1.414062.7695313-.769531c.7366599.52295 1.5818562.872827 2.4726562 1.023437v1.089844h2v-1.085938c.89056-.15268 1.735103-.504536 2.470703-1.029296l.771485.771484 1.414062-1.414062-.769531-.769532c.52295-.73666.872827-1.581856 1.023437-2.472656h1.089844v-2h-1.085938c-.152679-.89056-.504536-1.7351031-1.029296-2.4707031l.771484-.7714844-1.414062-1.4140625-.769532.7695312c-.73666-.52295-1.581856-.8728274-2.472656-1.0234374v-1.0898438zm-1 4h4v1h-4zm0 2h4v1h-4zm0 2h4v1h-4z" fill="#bebebe" transform="translate(3 3)"/></svg>

<svg xmlns="http://www.w3.org/2000/svg" width="22" height="22" viewBox="0 0 22 22">
 <defs>
  <style id="current-color-scheme" type="text/css">
   .ColorScheme-Text { color:#bebebe; } .ColorScheme-Highlight { color:#4285f4; }
  </style>
 </defs>
 <path style="fill:currentColor" class="ColorScheme-Text" d="M 7 1 L 7 2.0859375 C 6.10944 2.2386175 5.2648969 2.5904744 4.5292969 3.1152344 L 3.7578125 2.34375 L 2.34375 3.7578125 L 3.1132812 4.5273438 C 2.5903313 5.2640038 2.2404537 6.1092 2.0898438 7 L 1 7 L 1 9 L 2.0859375 9 C 2.2386175 9.89056 2.5904744 10.735103 3.1152344 11.470703 L 2.34375 12.242188 L 3.7578125 13.65625 L 4.5273438 12.886719 C 5.2640037 13.409669 6.1092 13.759546 7 13.910156 L 7 15 L 9 15 L 9 13.914062 C 9.89056 13.761382 10.735103 13.409526 11.470703 12.884766 L 12.242188 13.65625 L 13.65625 12.242188 L 12.886719 11.472656 C 13.409669 10.735996 13.759546 9.8908 13.910156 9 L 15 9 L 15 7 L 13.914062 7 C 13.761383 6.10944 13.409526 5.2648969 12.884766 4.5292969 L 13.65625 3.7578125 L 12.242188 2.34375 L 11.472656 3.1132812 C 10.735996 2.5903312 9.8908 2.2404538 9 2.0898438 L 9 1 L 7 1 z M 6 5 L 10 5 L 10 6 L 6 6 L 6 5 z M 6 7 L 10 7 L 10 8 L 6 8 L 6 7 z M 6 9 L 10 9 L 10 10 L 6 10 L 6 9 z" transform="translate(3 3)"/>
</svg>
